!!!OTL: DIE FRANZOSEN ZOGEN EIN
!!!ARE: Europa, Mitteleuropa, Deutschland, France, Elsass
!!!SCT: E0364
!!!YEM: Copyright 1995, estate of Helmut Schaffrath.
**kern
*ICvox
*Ivox
*M3/4
*k[f#]
*G:
{8g
8a
=1
4b
4b
4a
=2
2g}
{8g
8a
=3
4b
4b
4a
=4
2g}
{8g
8b
=5
4dd
4dd
4dd
=6
4.dd
8cc}
{4b
=7
4cc
4cc
4cc
=8
4.cc
8b}
{4a
=9
4b
4b
4a
=10
2g}
{8g
8b
=11
4dd
4dd
4cc
=12
2b}
==
!!!AGN: historisches Lied, Krieg, franzoesisches Soldaten - Lied (1855)
!!!ONB: ESAC (Essen Associative Code) Database: ERK1
!!!AMT: simple triple
!!!AIN: vox
!!!EED: Helmut Schaffrath
!!!EEV: 1.0
*-
